X:18
T:Gan Ainm
R:Reel
S:Paddy Cronin, Kerry (fiddle)
D:From RTE 'The Pure Drop'
N:As played
M:4/4
Z:Bernie Stocks
K:G
defg e^cdB | AD(3FED FAdc | BE~E2 GBdd | {e}dBAc BE~E2 |
(3Bcdef d2{e}dB | AD(3FED FAdc | BE~E2 GBdd | {e}dBAc BE~E2 ||
e3f g-f{g}fe | defa {b}afdf | edef gf{g}fe | dBAc BE~E2 |
e3f g-f{g}fe | defa {b}afdf | gabg fagf | (3efgfa ~g3f ||
<end>
<start>
